src/lib/packages/icons/src/assets/filled/calculator-simple.svg

<svg xmlns="http://www.w3.org/2000/svg" width="24" height="24" fill="none"><path fill="currentColor" d="M20.7 12.75h-7.65c-.17 0-.3.13-.3.3v7.65c0 .17.13.3.3.3H18c2 0 3-1 3-3v-4.95c0-.17-.13-.3-.3-.3ZM18 18.5h-3c-.41 0-.75-.34-.75-.75s.34-.75.75-.75h3c.41 0 .75.34.75.75s-.34.75-.75.75Zm0-2.5h-3c-.41 0-.75-.34-.75-.75s.34-.75.75-.75h3c.41 0 .75.34.75.75s-.34.75-.75.75ZM10.95 3H6C4 3 3 4 3 6v4.95c0 .17.13.3.3.3h7.65c.17 0 .3-.13.3-.3V3.3c0-.17-.13-.3-.3-.3ZM9 8.25H6c-.41 0-.75-.34-.75-.75s.34-.75.75-.75h3c.41 0 .75.34.75.75s-.34.75-.75.75ZM18 3h-4.95c-.17 0-.3.13-.3.3v7.65c0 .17.13.3.3.3h7.65c.17 0 .3-.13.3-.3V6c0-2-1-3-3-3Zm0 5.25h-.75V9c0 .41-.34.75-.75.75s-.75-.34-.75-.75v-.75H15c-.41 0-.75-.34-.75-.75s.34-.75.75-.75h.75V6c0-.41.34-.75.75-.75s.75.34.75.75v.75H18c.41 0 .75.34.75.75s-.34.75-.75.75Zm-7.05 4.5H3.3c-.17 0-.3.13-.3.3V18c0 2 1 3 3 3h4.95c.17 0 .3-.13.3-.3v-7.65c0-.17-.13-.3-.3-.3Zm-1.67 4.47c.29.29.29.77 0 1.06-.15.15-.34.22-.53.22s-.38-.07-.53-.22l-.72-.72-.72.72c-.15.15-.34.22-.53.22s-.38-.07-.53-.22a.754.754 0 0 1 0-1.06l.72-.72-.72-.72a.754.754 0 0 1 0-1.06c.29-.29.77-.29 1.06 0l.72.72.72-.72c.29-.29.77-.29 1.06 0 .29.29.29.77 0 1.06l-.72.72.72.72Z"/></svg>

<svg width="24" height="24" viewBox="0 0 24 24" fill="none" xmlns="http://www.w3.org/2000/svg">
<path d="M20.7 12.75H13.05C12.88 12.75 12.75 12.88 12.75 13.05V20.7C12.75 20.87 12.88 21 13.05 21H18C20 21 21 20 21 18V13.05C21 12.88 20.87 12.75 20.7 12.75ZM18 18.5H15C14.59 18.5 14.25 18.16 14.25 17.75C14.25 17.34 14.59 17 15 17H18C18.41 17 18.75 17.34 18.75 17.75C18.75 18.16 18.41 18.5 18 18.5ZM18 16H15C14.59 16 14.25 15.66 14.25 15.25C14.25 14.84 14.59 14.5 15 14.5H18C18.41 14.5 18.75 14.84 18.75 15.25C18.75 15.66 18.41 16 18 16ZM10.95 3H6C4 3 3 4 3 6V10.95C3 11.12 3.13 11.25 3.3 11.25H10.95C11.12 11.25 11.25 11.12 11.25 10.95V3.30005C11.25 3.13005 11.12 3 10.95 3ZM9 8.25H6C5.59 8.25 5.25 7.91 5.25 7.5C5.25 7.09 5.59 6.75 6 6.75H9C9.41 6.75 9.75 7.09 9.75 7.5C9.75 7.91 9.41 8.25 9 8.25ZM18 3H13.05C12.88 3 12.75 3.13005 12.75 3.30005V10.95C12.75 11.12 12.88 11.25 13.05 11.25H20.7C20.87 11.25 21 11.12 21 10.95V6C21 4 20 3 18 3ZM18 8.25H17.25V9C17.25 9.41 16.91 9.75 16.5 9.75C16.09 9.75 15.75 9.41 15.75 9V8.25H15C14.59 8.25 14.25 7.91 14.25 7.5C14.25 7.09 14.59 6.75 15 6.75H15.75V6C15.75 5.59 16.09 5.25 16.5 5.25C16.91 5.25 17.25 5.59 17.25 6V6.75H18C18.41 6.75 18.75 7.09 18.75 7.5C18.75 7.91 18.41 8.25 18 8.25ZM10.95 12.75H3.3C3.13 12.75 3 12.88 3 13.05V18C3 20 4 21 6 21H10.95C11.12 21 11.25 20.87 11.25 20.7V13.05C11.25 12.88 11.12 12.75 10.95 12.75ZM9.28 17.22C9.57 17.51 9.57 17.99 9.28 18.28C9.13 18.43 8.94 18.5 8.75 18.5C8.56 18.5 8.37 18.43 8.22 18.28L7.5 17.5601L6.78 18.28C6.63 18.43 6.44 18.5 6.25 18.5C6.06 18.5 5.87 18.43 5.72 18.28C5.43 17.99 5.43 17.51 5.72 17.22L6.44 16.5L5.72 15.78C5.43 15.49 5.43 15.01 5.72 14.72C6.01 14.43 6.49 14.43 6.78 14.72L7.5 15.4399L8.22 14.72C8.51 14.43 8.99 14.43 9.28 14.72C9.57 15.01 9.57 15.49 9.28 15.78L8.56 16.5L9.28 17.22Z" fill="currentColor"/>
</svg>
